src/assets/svgs/money.svg

<svg width="32" height="32" viewBox="0 0 32 32" fill="none" xmlns="http://www.w3.org/2000/svg">
<path d="M28.2933 16C28.957 15.2698 29.3274 14.3201 29.3333 13.3333C29.3333 12.2725 28.9119 11.2551 28.1617 10.5049C27.4116 9.75476 26.3942 9.33333 25.3333 9.33333H18.4266C18.6396 8.7309 18.7052 8.08621 18.6179 7.45324C18.5305 6.82026 18.2928 6.21742 17.9246 5.69518C17.5564 5.17294 17.0685 4.7465 16.5017 4.45157C15.9348 4.15664 15.3056 4.00179 14.6666 4H6.66663C5.60576 4 4.58834 4.42143 3.8382 5.17157C3.08805 5.92172 2.66663 6.93913 2.66663 8C2.67251 8.98674 3.04291 9.93648 3.70663 10.6667C3.05069 11.4 2.68805 12.3494 2.68805 13.3333C2.68805 14.3172 3.05069 15.2666 3.70663 16C3.05069 16.7334 2.68805 17.6828 2.68805 18.6667C2.68805 19.6506 3.05069 20.6 3.70663 21.3333C3.04291 22.0635 2.67251 23.0133 2.66663 24C2.66663 25.0609 3.08805 26.0783 3.8382 26.8284C4.58834 27.5786 5.60576 28 6.66663 28H25.3333C26.1036 27.9959 26.8564 27.7694 27.5011 27.3478C28.1459 26.9262 28.6552 26.3273 28.9678 25.6233C29.2804 24.9192 29.383 24.1398 29.2634 23.3788C29.1437 22.6178 28.8069 21.9075 28.2933 21.3333C28.9492 20.6 29.3119 19.6506 29.3119 18.6667C29.3119 17.6828 28.9492 16.7334 28.2933 16ZM14.6666 25.3333H6.66663C6.313 25.3333 5.97387 25.1929 5.72382 24.9428C5.47377 24.6928 5.33329 24.3536 5.33329 24C5.33329 23.6464 5.47377 23.3072 5.72382 23.0572C5.97387 22.8071 6.313 22.6667 6.66663 22.6667H14.6666C15.0202 22.6667 15.3594 22.8071 15.6094 23.0572C15.8595 23.3072 16 23.6464 16 24C16 24.3536 15.8595 24.6928 15.6094 24.9428C15.3594 25.1929 15.0202 25.3333 14.6666 25.3333ZM14.6666 20H6.66663C6.313 20 5.97387 19.8595 5.72382 19.6095C5.47377 19.3594 5.33329 19.0203 5.33329 18.6667C5.33329 18.313 5.47377 17.9739 5.72382 17.7239C5.97387 17.4738 6.313 17.3333 6.66663 17.3333H14.6666C15.0202 17.3333 15.3594 17.4738 15.6094 17.7239C15.8595 17.9739 16 18.313 16 18.6667C16 19.0203 15.8595 19.3594 15.6094 19.6095C15.3594 19.8595 15.0202 20 14.6666 20ZM14.6666 14.6667H6.66663C6.313 14.6667 5.97387 14.5262 5.72382 14.2761C5.47377 14.0261 5.33329 13.687 5.33329 13.3333C5.33329 12.9797 5.47377 12.6406 5.72382 12.3905C5.97387 12.1405 6.313 12 6.66663 12H14.6666C15.0202 12 15.3594 12.1405 15.6094 12.3905C15.8595 12.6406 16 12.9797 16 13.3333C16 13.687 15.8595 14.0261 15.6094 14.2761C15.3594 14.5262 15.0202 14.6667 14.6666 14.6667ZM14.6666 9.33333H6.66663C6.313 9.33333 5.97387 9.19286 5.72382 8.94281C5.47377 8.69276 5.33329 8.35362 5.33329 8C5.33329 7.64638 5.47377 7.30724 5.72382 7.05719C5.97387 6.80714 6.313 6.66667 6.66663 6.66667H14.6666C15.0202 6.66667 15.3594 6.80714 15.6094 7.05719C15.8595 7.30724 16 7.64638 16 8C16 8.35362 15.8595 8.69276 15.6094 8.94281C15.3594 9.19286 15.0202 9.33333 14.6666 9.33333ZM26.2533 24.9467C26.1351 25.0713 25.9923 25.1701 25.8339 25.2366C25.6755 25.3032 25.5051 25.3361 25.3333 25.3333H18.4266C18.7464 24.4732 18.7464 23.5268 18.4266 22.6667H25.3333C25.6869 22.6667 26.0261 22.8071 26.2761 23.0572C26.5262 23.3072 26.6666 23.6464 26.6666 24C26.6642 24.1774 26.6263 24.3524 26.5554 24.515C26.4844 24.6775 26.3817 24.8243 26.2533 24.9467V24.9467ZM26.2533 19.6133C26.1351 19.738 25.9923 19.8367 25.8339 19.9033C25.6755 19.9699 25.5051 20.0028 25.3333 20H18.4266C18.7464 19.1399 18.7464 18.1935 18.4266 17.3333H25.3333C25.6869 17.3333 26.0261 17.4738 26.2761 17.7239C26.5262 17.9739 26.6666 18.313 26.6666 18.6667C26.6642 18.844 26.6263 19.0191 26.5554 19.1817C26.4844 19.3442 26.3817 19.491 26.2533 19.6133V19.6133ZM26.2533 14.28C26.1351 14.4047 25.9923 14.5034 25.8339 14.57C25.6755 14.6365 25.5051 14.6695 25.3333 14.6667H18.4266C18.7464 13.8065 18.7464 12.8601 18.4266 12H25.3333C25.6869 12 26.0261 12.1405 26.2761 12.3905C26.5262 12.6406 26.6666 12.9797 26.6666 13.3333C26.6642 13.5107 26.6263 13.6858 26.5554 13.8483C26.4844 14.0109 26.3817 14.1576 26.2533 14.28V14.28Z" fill="#B69D75"/>
</svg>

<svg width="32" height="32" fill="none" xmlns="http://www.w3.org/2000/svg"><path d="M28.293 16a4 4 0 0 0 1.04-2.667 4 4 0 0 0-4-4h-6.906A4 4 0 0 0 14.667 4h-8a4 4 0 0 0-4 4 4 4 0 0 0 1.04 2.667 4 4 0 0 0 0 5.333 4 4 0 0 0 0 5.333A4 4 0 0 0 2.667 24a4 4 0 0 0 4 4h18.666a4 4 0 0 0 2.96-6.667 4 4 0 0 0 0-5.333Zm-13.626 9.333h-8a1.333 1.333 0 1 1 0-2.666h8a1.333 1.333 0 1 1 0 2.666Zm0-5.333h-8a1.334 1.334 0 0 1 0-2.667h8a1.333 1.333 0 1 1 0 2.667Zm0-5.333h-8a1.333 1.333 0 0 1 0-2.667h8a1.333 1.333 0 0 1 0 2.667Zm0-5.334h-8a1.333 1.333 0 1 1 0-2.666h8a1.333 1.333 0 1 1 0 2.666Zm11.586 15.614a1.24 1.24 0 0 1-.92.386h-6.906c.32-.86.32-1.806 0-2.666h6.906A1.333 1.333 0 0 1 26.667 24a1.333 1.333 0 0 1-.414.947Zm0-5.334a1.24 1.24 0 0 1-.92.387h-6.906c.32-.86.32-1.806 0-2.667h6.906a1.333 1.333 0 0 1 1.334 1.334 1.334 1.334 0 0 1-.414.946Zm0-5.333a1.24 1.24 0 0 1-.92.387h-6.906c.32-.86.32-1.807 0-2.667h6.906a1.333 1.333 0 0 1 1.334 1.333 1.333 1.333 0 0 1-.414.947Z" fill="#B69D75"/></svg>
